app/[lang]/(home)/(new-home)/assets/shared-icons/sealos.svg

<svg
  width="157"
  height="156"
  viewBox="0 0 157 156"
  fill="none"
  xmlns="http://www.w3.org/2000/svg"
>
  <path
    d="M34.2563 73.4175C43.1129 86.3659 61.4711 85.1678 61.4711 85.1678C56.9184 80.735 53.9232 76.6615 53.5638 65.1508C53.2043 53.64 46.7347 50.525 46.7347 50.525C58.5312 43.1338 54.2826 35.0607 53.9232 26.1028C53.702 20.564 57.0105 16.3983 59.5726 14.0391C31.2704 18.2139 9.54834 42.5993 9.54834 72.0627C9.54834 74.1456 9.76952 76.0901 9.98148 78.1176C11.069 75.2146 26.0726 61.446 34.2655 73.4175H34.2563Z"
    fill="url(#paint0_linear_528_4463)"
  />
  <path
    d="M134.524 38.2575C128.267 32.986 121.548 31.6221 116.378 31.6221C101.568 31.6221 89.0805 43.695 88.3617 58.4866C88.3248 59.1501 88.3248 59.6294 88.3248 60.1916C88.3248 61.1961 88.417 62.2836 88.4907 63.1406C88.629 64.6244 89.1358 67.0021 89.4953 69.0757C89.9284 71.5917 90.1127 72.928 90.2049 75.5453C90.2878 78.1442 90.0482 80.9367 89.7902 82.6601C89.3939 85.3511 88.5552 88.5951 87.5783 91.065C84.6569 98.4747 79.8646 104.668 73.7636 109.138C67.2295 113.93 59.1471 116.851 50.097 116.851C43.5537 116.851 37.5633 115.34 32.1628 112.63C21.0207 107.027 13.0304 96.6868 10.5605 83.7752C15.4358 116.796 44.2817 142.066 78.6573 142.066C116.452 142.066 147.095 111.423 147.095 73.6284C147.095 68.2279 146.496 63.3803 145.657 59.27C145.031 56.201 144.026 52.7451 142.561 49.3351C140.671 44.9391 138.248 41.4002 134.524 38.2575Z"
    fill="url(#paint1_linear_528_4463)"
  />
  <mask
    id="mask0_528_4463"
    style="mask-type: luminance"
    maskUnits="userSpaceOnUse"
    x="10"
    y="31"
    width="138"
    height="112"
  >
    <path
      d="M134.524 38.2575C128.267 32.986 121.548 31.6221 116.378 31.6221C101.568 31.6221 89.0805 43.695 88.3617 58.4866C88.3248 59.1501 88.3248 59.6294 88.3248 60.1916C88.3248 61.1961 88.417 62.2836 88.4907 63.1406C88.629 64.6244 89.1358 67.0021 89.4953 69.0757C89.9284 71.5917 90.1127 72.928 90.2049 75.5453C90.2878 78.1442 90.0482 80.9367 89.7902 82.6601C89.3939 85.3511 88.5552 88.5951 87.5783 91.065C84.6569 98.4747 79.8646 104.668 73.7636 109.138C67.2295 113.93 59.1471 116.851 50.097 116.851C43.5537 116.851 37.5633 115.34 32.1628 112.63C21.0207 107.027 13.0304 96.6868 10.5605 83.7752C15.4358 116.796 44.2817 142.066 78.6573 142.066C116.452 142.066 147.095 111.423 147.095 73.6284C147.095 68.2279 146.496 63.3803 145.657 59.27C145.031 56.201 144.026 52.7451 142.561 49.3351C140.671 44.9391 138.248 41.4002 134.524 38.2575Z"
      fill="white"
    />
  </mask>
  <g mask="url(#mask0_528_4463)">
    <path
      d="M71.2492 129.155C104.557 129.155 131.558 102.153 131.558 68.8454C131.558 35.5375 104.557 8.53613 71.2492 8.53613C37.9413 8.53613 10.9399 35.5375 10.9399 68.8454C10.9399 102.153 37.9413 129.155 71.2492 129.155Z"
      fill="url(#paint2_linear_528_4463)"
    />
  </g>
  <defs>
    <linearGradient
      id="paint0_linear_528_4463"
      x1="51.3027"
      y1="5.99814"
      x2="-6.31892"
      y2="96.8032"
      gradientUnits="userSpaceOnUse"
    >
      <stop stop-color="#0AA3F9" />
      <stop offset="1" stop-color="#B5B4FF" />
    </linearGradient>
    <linearGradient
      id="paint1_linear_528_4463"
      x1="167.409"
      y1="145.154"
      x2="75.8159"
      y2="27.3184"
      gradientUnits="userSpaceOnUse"
    >
      <stop stop-color="#0AA3F9" />
      <stop offset="1" stop-color="#B5B4FF" />
    </linearGradient>
    <linearGradient
      id="paint2_linear_528_4463"
      x1="113.083"
      y1="8.56627"
      x2="8.01209"
      y2="108.299"
      gradientUnits="userSpaceOnUse"
    >
      <stop stop-color="#7ABBFD" />
      <stop offset="1" stop-color="#7ABBFD" stop-opacity="0" />
    </linearGradient>
  </defs>
</svg>

<svg xmlns="http://www.w3.org/2000/svg" fill="none" viewBox="0 0 157 156">
  <path
    fill="url(#a)"
    d="M34.26 73.42c8.85 12.95 27.21 11.75 27.21 11.75-4.55-4.44-7.55-8.5-7.9-20.02-.37-11.51-6.84-14.63-6.84-14.63 11.8-7.39 7.55-15.46 7.2-24.42-.23-5.54 3.08-9.7 5.64-12.06A58.67 58.67 0 0 0 9.55 72.06c0 2.09.22 4.03.43 6.06 1.09-2.9 16.1-16.67 24.29-4.7h-.01Z"
  />
  <path
    fill="url(#b)"
    d="M134.52 38.26a27.73 27.73 0 0 0-18.14-6.64c-14.81 0-27.3 12.07-28.02 26.87-.04.66-.04 1.14-.04 1.7 0 1 .1 2.1.17 2.95.14 1.48.65 3.86 1 5.94a40.42 40.42 0 0 1-1.91 21.98 40.81 40.81 0 0 1-13.82 18.08 39.68 39.68 0 0 1-23.66 7.71 39.55 39.55 0 0 1-17.94-4.22 40.37 40.37 0 0 1-21.6-28.85c4.88 33.02 33.72 58.29 68.1 58.29a68.44 68.44 0 0 0 68.44-68.44c0-5.4-.6-10.25-1.44-14.36a51.64 51.64 0 0 0-3.1-9.93 28.53 28.53 0 0 0-8.04-11.08Z"
  />
  <mask
    id="c"
    width="138"
    height="112"
    x="10"
    y="31"
    maskUnits="userSpaceOnUse"
    style="mask-type: luminance"
  >
    <path
      fill="#fff"
      d="M134.52 38.26a27.73 27.73 0 0 0-18.14-6.64c-14.81 0-27.3 12.07-28.02 26.87-.04.66-.04 1.14-.04 1.7 0 1 .1 2.1.17 2.95.14 1.48.65 3.86 1 5.94a40.42 40.42 0 0 1-1.91 21.98 40.81 40.81 0 0 1-13.82 18.08 39.68 39.68 0 0 1-23.66 7.71 39.55 39.55 0 0 1-17.94-4.22 40.37 40.37 0 0 1-21.6-28.85c4.88 33.02 33.72 58.29 68.1 58.29a68.44 68.44 0 0 0 68.44-68.44c0-5.4-.6-10.25-1.44-14.36a51.64 51.64 0 0 0-3.1-9.93 28.53 28.53 0 0 0-8.04-11.08Z"
    />
  </mask>
  <g mask="url(#c)">
    <path
      fill="url(#d)"
      d="M71.25 129.16a60.3 60.3 0 1 0 0-120.62 60.3 60.3 0 0 0 0 120.62Z"
    />
  </g>
  <defs>
    <linearGradient
      id="a"
      x1="51.3"
      x2="-6.32"
      y1="6"
      y2="96.8"
      gradientUnits="userSpaceOnUse"
    >
      <stop stop-color="#0AA3F9" />
      <stop offset="1" stop-color="#B5B4FF" />
    </linearGradient>
    <linearGradient
      id="b"
      x1="167.41"
      x2="75.82"
      y1="145.15"
      y2="27.32"
      gradientUnits="userSpaceOnUse"
    >
      <stop stop-color="#0AA3F9" />
      <stop offset="1" stop-color="#B5B4FF" />
    </linearGradient>
    <linearGradient
      id="d"
      x1="113.08"
      x2="8.01"
      y1="8.57"
      y2="108.3"
      gradientUnits="userSpaceOnUse"
    >
      <stop stop-color="#7ABBFD" />
      <stop offset="1" stop-color="#7ABBFD" stop-opacity="0" />
    </linearGradient>
  </defs>
</svg>
